svg/clinical_f_positive.svg

<svg width="48" height="48" viewBox="0 0 48 48" fill="none" xmlns="http://www.w3.org/2000/svg">
<path fill-rule="evenodd" clip-rule="evenodd" d="M24.0288 4.97266C22.6288 4.97416 21.4768 6.07414 21.4098 7.47262H19.3118C18.7228 7.47262 18.2498 7.94782 18.2498 8.53701V8.77531H11.8609C10.8319 8.77531 10.002 9.6031 10.002 10.6329V41.1675C10.002 42.1975 10.8319 43.0265 11.8609 43.0265H36.1386C37.1676 43.0265 37.9956 42.1975 37.9956 41.1675V10.6329C37.9956 9.6031 37.1676 8.77531 36.1386 8.77531H29.7477V8.53701C29.7477 7.94782 29.2747 7.47262 28.6857 7.47262H26.6477C26.5817 6.07414 25.4288 4.97416 24.0288 4.97266ZM23.9858 6.42374C24.6338 6.42444 25.1588 6.94993 25.1578 7.59762C25.1588 8.24532 24.6338 8.77071 23.9858 8.77141C23.3378 8.77181 22.8118 8.24602 22.8118 7.59762C22.8118 6.94913 23.3378 6.42334 23.9858 6.42374ZM19.6558 8.18942H21.4588C21.6548 9.02451 22.2408 9.6805 22.9938 9.99989H22.9788C23.0109 10.0129 23.0432 10.0252 23.0758 10.0369C23.1108 10.0509 23.1458 10.0639 23.1818 10.0759C23.294 10.1136 23.4086 10.1437 23.5248 10.1659C23.5558 10.1719 23.5878 10.1749 23.6188 10.1799C23.7448 10.2008 23.8721 10.2125 23.9998 10.2149H24.0118C24.1431 10.213 24.2742 10.2014 24.4038 10.1799C24.4348 10.1749 24.4658 10.1719 24.4958 10.1659C24.6068 10.1443 24.7164 10.1156 24.8238 10.0799C24.8708 10.0649 24.9158 10.0469 24.9608 10.0289C24.9876 10.0197 25.0143 10.01 25.0408 9.99989H25.0288C25.7818 9.6805 26.3687 9.02451 26.5637 8.18942H28.3107C28.6647 8.18942 28.9507 8.47511 28.9507 8.83001V9.99989V11.0509H19.0158V9.99989V8.83001C19.0158 8.47511 19.3008 8.18942 19.6558 8.18942ZM17.1579 13.3829C17.5179 13.3829 17.8049 13.6728 17.8049 14.0328V15.7518H19.5228C19.8828 15.7518 20.1738 16.0418 20.1738 16.4018C20.1738 16.7618 19.8828 17.0508 19.5228 17.0508H17.8049V18.7698C17.8049 19.1298 17.5159 19.4198 17.1559 19.4198C16.7959 19.4198 16.5059 19.1298 16.5059 18.7698V17.0508H14.7869C14.4269 17.0508 14.1369 16.7628 14.1369 16.4018C14.1369 16.0418 14.4269 15.7518 14.7869 15.7518H16.5079V14.0328C16.5079 13.6728 16.7979 13.3829 17.1579 13.3829ZM13.9389 23.9997H34.0617V25.3747H13.9389V23.9997ZM13.9389 27.9997H34.0617V29.3746H13.9389V27.9997ZM13.9389 31.9996H34.0617V33.3746H13.9389V31.9996ZM13.9389 35.9996H26.6247V37.3745H13.9389V35.9996Z" fill="#333333" fill-opacity="0.99505"/>
</svg>

<?xml version="1.0" encoding="UTF-8" standalone="no"?>
<!-- Created with Inkscape (http://www.inkscape.org/) -->
<svg id="svg8" xmlns:rdf="http://www.w3.org/1999/02/22-rdf-syntax-ns#" xmlns="http://www.w3.org/2000/svg" xmlns:osb="http://www.openswatchbook.org/uri/2009/osb" height="48" width="48" version="1.1" xmlns:cc="http://creativecommons.org/ns#" viewBox="0 0 12.7 12.7" xmlns:dc="http://purl.org/dc/elements/1.1/">
 <title id="title4753">UIO-icon</title>
 <metadata id="metadata5">
  <rdf:RDF>
   <cc:Work rdf:about="">
    <dc:format>image/svg+xml</dc:format>
    <dc:type rdf:resource="http://purl.org/dc/dcmitype/StillImage"/>
    <dc:title>UIO-icon</dc:title>
    <dc:creator>
     <cc:Agent>
      <dc:title>Joaquín Urbano</dc:title>
     </cc:Agent>
    </dc:creator>
    <dc:rights>
     <cc:Agent>
      <dc:title>GPL</dc:title>
     </cc:Agent>
    </dc:rights>
   </cc:Work>
  </rdf:RDF>
 </metadata>
 <g id="layer1" fill="#333" transform="translate(0,-284.3)">
  <path id="rect4798" d="m24.029 4.9727c-1.4 0.0015-2.552 1.1015-2.619 2.5h-2.098c-0.589 0-1.062 0.4752-1.062 1.0644v0.2383h-6.389c-1.029 0-1.859 0.8278-1.859 1.8576v30.535c0 1.03 0.83 1.859 1.859 1.859h24.278c1.029 0 1.857-0.829 1.857-1.859v-30.535c0-1.0298-0.828-1.8576-1.857-1.8576h-6.391v-0.2383c0-0.5892-0.473-1.0644-1.062-1.0644h-2.038c-0.066-1.3985-1.219-2.4985-2.619-2.5zm-0.043 1.4511c0.648 0.0007 1.173 0.5262 1.172 1.1739 0.001 0.6477-0.524 1.1731-1.172 1.1738-0.648 0.0004-1.174-0.5254-1.174-1.1738 0-0.6485 0.526-1.1743 1.174-1.1739zm-4.33 1.7657h1.803c0.196 0.8351 0.782 1.4911 1.535 1.8105h-0.015a2.625 2.625 0 0 0 0.097 0.037c0.035 0.014 0.07 0.027 0.106 0.039a2.625 2.625 0 0 0 0.343 0.09c0.031 0.006 0.063 0.009 0.094 0.014a2.625 2.625 0 0 0 0.381 0.035h0.012a2.625 2.625 0 0 0 0.392 -0.035c0.031-0.005 0.062-0.008 0.092-0.014a2.625 2.625 0 0 0 0.328 -0.086c0.047-0.015 0.092-0.033 0.137-0.051a2.625 2.625 0 0 0 0.08 -0.029h-0.012c0.753-0.3194 1.34-0.9754 1.535-1.8105h1.747c0.354 0 0.64 0.2857 0.64 0.6406v1.1699 1.051h-9.935v-1.051-1.1699c0-0.3549 0.285-0.6406 0.64-0.6406zm-2.498 5.1935c0.36 0 0.647 0.29 0.647 0.65v1.719h1.718c0.36 0 0.651 0.29 0.651 0.65s-0.291 0.649-0.651 0.649h-1.718v1.719c0 0.36-0.289 0.65-0.649 0.65s-0.65-0.29-0.65-0.65v-1.719h-1.719c-0.36 0-0.65-0.288-0.65-0.649 0-0.36 0.29-0.65 0.65-0.65h1.721v-1.719c0-0.36 0.29-0.65 0.65-0.65zm-3.219 10.617h20.123v1.375h-20.123v-1.375zm0 4h20.123v1.375h-20.123v-1.375zm0 4h20.123v1.375h-20.123v-1.375zm0 4h12.686v1.375h-12.686v-1.375z" fill-rule="evenodd" fill-opacity=".99505" transform="matrix(.26458 0 0 .26458 0 284.3)"/>
 </g>
</svg>
